img/image/modal-callback-check.svg

<svg width="16" height="12" viewBox="0 0 16 12" fill="none" xmlns="http://www.w3.org/2000/svg">
<mask id="path-1-inside-1_134_133" fill="white">
<path fill-rule="evenodd" clip-rule="evenodd" d="M15.0425 1.05791C15.2394 1.25482 15.35 1.52184 15.35 1.80026C15.35 2.07869 15.2394 2.34571 15.0425 2.54261L6.64253 10.9426C6.44563 11.1395 6.17861 11.25 5.90018 11.25C5.62176 11.25 5.35474 11.1395 5.15783 10.9426L0.957833 6.74261C0.766567 6.54458 0.660733 6.27935 0.663126 6.00404C0.665518 5.72874 0.775945 5.46538 0.970624 5.2707C1.1653 5.07603 1.42866 4.9656 1.70396 4.96321C1.97927 4.96081 2.2445 5.06665 2.44253 5.25791L5.90018 8.71556L13.5578 1.05791C13.7547 0.86107 14.0218 0.750488 14.3002 0.750488C14.5786 0.750488 14.8456 0.86107 15.0425 1.05791Z"/>
</mask>
<path fill-rule="evenodd" clip-rule="evenodd" d="M15.0425 1.05791C15.2394 1.25482 15.35 1.52184 15.35 1.80026C15.35 2.07869 15.2394 2.34571 15.0425 2.54261L6.64253 10.9426C6.44563 11.1395 6.17861 11.25 5.90018 11.25C5.62176 11.25 5.35474 11.1395 5.15783 10.9426L0.957833 6.74261C0.766567 6.54458 0.660733 6.27935 0.663126 6.00404C0.665518 5.72874 0.775945 5.46538 0.970624 5.2707C1.1653 5.07603 1.42866 4.9656 1.70396 4.96321C1.97927 4.96081 2.2445 5.06665 2.44253 5.25791L5.90018 8.71556L13.5578 1.05791C13.7547 0.86107 14.0218 0.750488 14.3002 0.750488C14.5786 0.750488 14.8456 0.86107 15.0425 1.05791Z" fill="#1F2A37"/>
<path d="M15.0425 1.05791L16.6338 -0.532836L16.6333 -0.533316L15.0425 1.05791ZM15.35 1.80026L17.6 1.80026L15.35 1.80026ZM15.0425 2.54261L16.6335 4.1336L16.6338 4.13336L15.0425 2.54261ZM6.64253 10.9426L8.23328 12.5338L8.23352 12.5336L6.64253 10.9426ZM5.15783 10.9426L3.56684 12.5336L3.56708 12.5338L5.15783 10.9426ZM0.957833 6.74261L-0.660565 8.30572L-0.646982 8.31978L-0.633157 8.3336L0.957833 6.74261ZM2.44253 5.25791L4.03352 3.66692L4.0197 3.6531L4.00563 3.63952L2.44253 5.25791ZM5.90018 8.71556L4.30919 10.3066L5.90018 11.8975L7.49117 10.3066L5.90018 8.71556ZM13.5578 1.05791L11.9671 -0.533316L11.9668 -0.533076L13.5578 1.05791ZM14.3002 0.750488L14.3002 3.00049L14.3002 0.750488ZM13.4513 2.64866C13.2263 2.42363 13.1 2.11846 13.1 1.80026L17.6 1.80026C17.6 0.925226 17.2524 0.0860084 16.6338 -0.532836L13.4513 2.64866ZM13.1 1.80026C13.1 1.48207 13.2263 1.1769 13.4513 0.951864L16.6338 4.13336C17.2524 3.51452 17.6 2.6753 17.6 1.80026L13.1 1.80026ZM13.4515 0.951623L5.05154 9.35162L8.23352 12.5336L16.6335 4.1336L13.4515 0.951623ZM5.05178 9.35138C5.27682 9.12642 5.58199 9.00004 5.90018 9.00004V13.5C6.77523 13.5 7.61444 13.1525 8.23328 12.5338L5.05178 9.35138ZM5.90018 9.00004C6.21838 9.00004 6.52355 9.12642 6.74858 9.35138L3.56708 12.5338C4.18592 13.1525 5.02514 13.5 5.90018 13.5V9.00004ZM6.74882 9.35162L2.54882 5.15162L-0.633157 8.3336L3.56684 12.5336L6.74882 9.35162ZM2.57623 5.17951C2.79482 5.40583 2.91577 5.70896 2.91304 6.02359L-1.58679 5.98449C-1.59431 6.84974 -1.26169 7.68333 -0.660565 8.30572L2.57623 5.17951ZM2.91304 6.02359C2.91031 6.33823 2.7841 6.6392 2.56161 6.86169L-0.620366 3.67971C-1.23221 4.29156 -1.57927 5.11924 -1.58679 5.98449L2.91304 6.02359ZM2.56161 6.86169C2.33912 7.08418 2.03815 7.21039 1.72351 7.21312L1.68441 2.71329C0.819162 2.72081 -0.00851893 3.06787 -0.620366 3.67971L2.56161 6.86169ZM1.72351 7.21312C1.40888 7.21586 1.10575 7.0949 0.879432 6.87631L4.00563 3.63952C3.38325 3.03839 2.54966 2.70577 1.68441 2.71329L1.72351 7.21312ZM0.851543 6.8489L4.30919 10.3066L7.49117 7.12457L4.03352 3.66692L0.851543 6.8489ZM7.49117 10.3066L15.1488 2.6489L11.9668 -0.533076L4.30919 7.12457L7.49117 10.3066ZM15.1486 2.64914C14.9236 2.87411 14.6184 3.00049 14.3002 3.00049L14.3002 -1.49951C13.4251 -1.49951 12.5859 -1.15197 11.9671 -0.533316L15.1486 2.64914ZM14.3002 3.00049C13.982 3.00049 13.6768 2.87411 13.4518 2.64914L16.6333 -0.533316C16.0144 -1.15197 15.1752 -1.49951 14.3002 -1.49951L14.3002 3.00049Z" fill="white" mask="url(#path-1-inside-1_134_133)"/>
</svg>

<svg width="16" height="12" fill="none" xmlns="http://www.w3.org/2000/svg"><mask id="a" fill="#fff"><path fill-rule="evenodd" clip-rule="evenodd" d="M15.043 1.058a1.05 1.05 0 0 1 0 1.485l-8.4 8.4a1.05 1.05 0 0 1-1.485 0l-4.2-4.2a1.05 1.05 0 0 1 1.485-1.485L5.9 8.716l7.658-7.658a1.05 1.05 0 0 1 1.485 0Z"/></mask><path fill-rule="evenodd" clip-rule="evenodd" d="M15.043 1.058a1.05 1.05 0 0 1 0 1.485l-8.4 8.4a1.05 1.05 0 0 1-1.485 0l-4.2-4.2a1.05 1.05 0 0 1 1.485-1.485L5.9 8.716l7.658-7.658a1.05 1.05 0 0 1 1.485 0Z" fill="#1F2A37"/><path d="m15.043 1.058 1.59-1.59v-.001l-1.59 1.59Zm.307.742h2.25-2.25Zm-.307.743 1.59 1.59-1.59-1.59Zm-8.4 8.4 1.59 1.59-1.59-1.59Zm-1.485 0-1.591 1.59 1.59-1.59Zm-4.2-4.2L-.661 8.306l.014.014.014.014 1.59-1.591Zm1.485-1.485 1.59-1.591-.013-.014-.014-.013-1.563 1.618ZM5.9 8.716l-1.59 1.59 1.59 1.592 1.591-1.591-1.59-1.591Zm7.658-7.658-1.59-1.591h-.001l1.59 1.59ZM14.3.75V3 .75Zm-.849 1.899A1.2 1.2 0 0 1 13.1 1.8h4.5a3.3 3.3 0 0 0-.966-2.333L13.45 2.65ZM13.1 1.8a1.2 1.2 0 0 1 .351-.848l3.183 3.181A3.3 3.3 0 0 0 17.6 1.8h-4.5Zm.351-.848-8.4 8.4 3.183 3.182 8.4-8.4L13.45.952Zm-8.4 8.4A1.2 1.2 0 0 1 5.902 9v4.5a3.3 3.3 0 0 0 2.332-.966L5.052 9.35ZM5.902 9a1.2 1.2 0 0 1 .848.351l-3.182 3.183A3.3 3.3 0 0 0 5.9 13.5V9Zm.848.352-4.2-4.2-3.182 3.182 4.2 4.2 3.182-3.182ZM2.576 5.18c.219.226.34.529.337.844l-4.5-.04A3.3 3.3 0 0 0-.66 8.306L2.576 5.18Zm.337.844a1.2 1.2 0 0 1-.351.838L-.62 3.68a3.3 3.3 0 0 0-.967 2.304l4.5.04Zm-.351.838a1.2 1.2 0 0 1-.838.351l-.04-4.5A3.3 3.3 0 0 0-.62 3.68l3.182 3.182Zm-.838.351a1.2 1.2 0 0 1-.845-.337L4.006 3.64a3.3 3.3 0 0 0-2.322-.927l.04 4.5ZM.852 6.85l3.457 3.458 3.182-3.182-3.457-3.458L.852 6.849Zm6.64 3.458 7.657-7.658-3.182-3.182-7.658 7.658 3.182 3.182Zm7.657-7.658A1.2 1.2 0 0 1 14.3 3v-4.5a3.3 3.3 0 0 0-2.333.967l3.182 3.182ZM14.3 3a1.2 1.2 0 0 1-.848-.35l3.181-3.183A3.3 3.3 0 0 0 14.3-1.5V3Z" fill="#fff" mask="url(#a)"/></svg>
